flaticon/design/triangle-1.svg

<svg xmlns="http://www.w3.org/2000/svg" width="32" height="32" viewBox="0 0 24 24">
    <path d="M 23.601562 4.355469 L 13.199219 4.355469 C 12.980469 4.355469 12.800781 4.535156 12.800781 4.757812 L 12.800781 8.007812 L 8.820312 1.042969 C 8.75 0.921875 8.617188 0.84375 8.476562 0.84375 C 8.476562 0.84375 8.476562 0.84375 8.472656 0.84375 C 8.332031 0.84375 8.199219 0.917969 8.128906 1.042969 L 0.0546875 14.957031 C -0.0195312 15.078125 -0.0195312 15.230469 0.0546875 15.355469 C 0.125 15.480469 0.257812 15.558594 0.398438 15.558594 L 6.917969 15.558594 C 6.875 15.773438 6.847656 15.996094 6.828125 16.222656 C 6.8125 16.265625 6.800781 16.308594 6.800781 16.355469 C 6.800781 16.386719 6.808594 16.410156 6.816406 16.4375 C 6.8125 16.542969 6.800781 16.648438 6.800781 16.757812 C 6.800781 20.285156 9.671875 23.15625 13.199219 23.15625 C 16.730469 23.15625 19.601562 20.285156 19.601562 16.757812 C 19.601562 16.347656 19.558594 15.945312 19.484375 15.558594 L 23.601562 15.558594 C 23.820312 15.558594 24 15.378906 24 15.15625 L 24 4.757812 C 24 4.535156 23.820312 4.355469 23.601562 4.355469 Z M 1.09375 14.757812 L 3.4375 10.71875 C 3.488281 10.742188 3.542969 10.757812 3.601562 10.757812 C 3.820312 10.757812 4 10.578125 4 10.355469 C 4 10.222656 3.929688 10.113281 3.832031 10.039062 L 4.429688 9.007812 C 4.410156 9.054688 4.398438 9.105469 4.398438 9.15625 C 4.398438 9.378906 4.578125 9.558594 4.800781 9.558594 C 5.019531 9.558594 5.199219 9.378906 5.199219 9.15625 C 5.199219 8.9375 5.019531 8.757812 4.800781 8.757812 C 4.648438 8.757812 4.523438 8.84375 4.457031 8.964844 L 6.261719 5.855469 C 6.324219 5.800781 6.363281 5.726562 6.382812 5.644531 L 6.953125 4.664062 C 7.019531 4.71875 7.105469 4.757812 7.199219 4.757812 C 7.421875 4.757812 7.601562 4.578125 7.601562 4.355469 C 7.601562 4.1875 7.492188 4.042969 7.34375 3.984375 L 8.472656 2.042969 L 9.570312 3.964844 C 9.363281 3.980469 9.199219 4.148438 9.199219 4.355469 C 9.199219 4.578125 9.378906 4.757812 9.601562 4.757812 C 9.734375 4.757812 9.847656 4.683594 9.921875 4.582031 L 10.421875 5.453125 C 10.410156 5.488281 10.398438 5.519531 10.398438 5.558594 C 10.398438 5.742188 10.527344 5.890625 10.695312 5.9375 L 12.800781 9.621094 L 12.800781 10.371094 C 12.75 10.371094 12.699219 10.378906 12.648438 10.386719 C 12.578125 10.390625 12.511719 10.398438 12.445312 10.40625 C 12.316406 10.421875 12.1875 10.441406 12.0625 10.464844 C 11.996094 10.476562 11.925781 10.484375 11.863281 10.5 C 11.695312 10.535156 11.53125 10.578125 11.367188 10.628906 C 11.273438 10.65625 11.179688 10.691406 11.089844 10.722656 C 11.011719 10.75 10.9375 10.777344 10.859375 10.804688 C 10.757812 10.84375 10.660156 10.886719 10.558594 10.933594 C 10.5 10.960938 10.441406 10.988281 10.386719 11.019531 C 10.214844 11.101562 10.050781 11.191406 9.890625 11.289062 C 9.820312 11.207031 9.71875 11.15625 9.601562 11.15625 C 9.378906 11.15625 9.199219 11.335938 9.199219 11.558594 C 9.199219 11.621094 9.21875 11.679688 9.246094 11.734375 C 9.160156 11.800781 9.074219 11.875 8.992188 11.945312 C 8.945312 11.988281 8.898438 12.03125 8.851562 12.074219 C 8.769531 12.152344 8.683594 12.230469 8.605469 12.3125 C 8.582031 12.335938 8.5625 12.359375 8.539062 12.386719 C 8.496094 12.367188 8.449219 12.355469 8.398438 12.355469 C 8.179688 12.355469 8 12.535156 8 12.757812 C 8 12.832031 8.027344 12.898438 8.0625 12.957031 C 8.03125 13 8 13.039062 7.96875 13.082031 C 7.90625 13.171875 7.847656 13.265625 7.785156 13.359375 C 7.75 13.414062 7.714844 13.472656 7.683594 13.53125 C 7.636719 13.609375 7.589844 13.6875 7.546875 13.765625 C 7.476562 13.644531 7.351562 13.558594 7.199219 13.558594 C 6.980469 13.558594 6.800781 13.738281 6.800781 13.957031 C 6.800781 14.179688 6.980469 14.355469 7.199219 14.355469 C 7.226562 14.355469 7.25 14.347656 7.277344 14.339844 C 7.222656 14.476562 7.171875 14.617188 7.125 14.757812 Z M 13.199219 22.355469 C 10.113281 22.355469 7.601562 19.84375 7.601562 16.757812 C 7.601562 16.234375 7.675781 15.734375 7.808594 15.253906 C 7.847656 15.121094 7.890625 14.988281 7.9375 14.859375 C 7.945312 14.835938 7.957031 14.808594 7.964844 14.78125 C 8.011719 14.660156 8.0625 14.539062 8.117188 14.421875 C 8.128906 14.394531 8.144531 14.367188 8.15625 14.335938 C 8.214844 14.222656 8.273438 14.105469 8.335938 13.992188 C 8.34375 13.980469 8.351562 13.96875 8.359375 13.953125 C 8.570312 13.59375 8.816406 13.261719 9.097656 12.957031 C 9.121094 12.933594 9.140625 12.910156 9.160156 12.886719 C 9.242188 12.800781 9.328125 12.722656 9.414062 12.640625 C 9.445312 12.613281 9.476562 12.585938 9.511719 12.554688 C 9.597656 12.480469 9.6875 12.40625 9.777344 12.332031 C 9.808594 12.308594 9.84375 12.285156 9.875 12.261719 C 9.972656 12.1875 10.070312 12.117188 10.171875 12.054688 C 10.191406 12.039062 10.210938 12.03125 10.230469 12.019531 C 10.558594 11.8125 10.90625 11.640625 11.273438 11.503906 C 11.328125 11.484375 11.378906 11.464844 11.4375 11.445312 C 11.523438 11.414062 11.617188 11.390625 11.707031 11.363281 C 11.78125 11.34375 11.859375 11.324219 11.9375 11.304688 C 12.019531 11.285156 12.097656 11.269531 12.179688 11.253906 C 12.28125 11.234375 12.382812 11.222656 12.484375 11.207031 C 12.550781 11.199219 12.613281 11.1875 12.679688 11.183594 C 12.851562 11.167969 13.023438 11.15625 13.199219 11.15625 C 13.375 11.15625 13.550781 11.167969 13.722656 11.183594 C 13.785156 11.1875 13.851562 11.199219 13.917969 11.207031 C 14.019531 11.222656 14.121094 11.234375 14.21875 11.253906 C 14.300781 11.269531 14.382812 11.285156 14.464844 11.304688 C 14.542969 11.324219 14.617188 11.34375 14.695312 11.363281 C 14.785156 11.390625 14.875 11.417969 14.964844 11.445312 C 15.019531 11.464844 15.074219 11.484375 15.128906 11.503906 C 15.492188 11.640625 15.84375 11.8125 16.171875 12.019531 C 16.191406 12.03125 16.210938 12.039062 16.230469 12.054688 C 16.332031 12.117188 16.429688 12.1875 16.527344 12.261719 C 16.558594 12.285156 16.589844 12.308594 16.625 12.332031 C 16.714844 12.40625 16.804688 12.480469 16.890625 12.554688 C 16.921875 12.585938 16.957031 12.613281 16.988281 12.640625 C 17.074219 12.722656 17.160156 12.800781 17.238281 12.886719 C 17.261719 12.910156 17.28125 12.933594 17.304688 12.957031 C 17.585938 13.261719 17.832031 13.59375 18.042969 13.953125 C 18.050781 13.96875 18.058594 13.980469 18.066406 13.992188 C 18.128906 14.105469 18.1875 14.21875 18.242188 14.335938 C 18.257812 14.367188 18.273438 14.394531 18.285156 14.421875 C 18.339844 14.539062 18.390625 14.660156 18.4375 14.78125 C 18.445312 14.808594 18.453125 14.835938 18.464844 14.859375 C 18.511719 14.988281 18.554688 15.121094 18.589844 15.253906 C 18.722656 15.734375 18.800781 16.234375 18.800781 16.757812 C 18.800781 19.84375 16.289062 22.355469 13.199219 22.355469 Z M 23.199219 14.757812 L 19.277344 14.757812 C 19.1875 14.484375 19.074219 14.222656 18.953125 13.96875 C 18.929688 13.921875 18.910156 13.878906 18.886719 13.832031 C 18.832031 13.730469 18.777344 13.628906 18.71875 13.53125 C 18.683594 13.472656 18.648438 13.414062 18.613281 13.359375 C 18.554688 13.265625 18.496094 13.171875 18.429688 13.082031 C 18.390625 13.027344 18.351562 12.972656 18.3125 12.921875 C 18.183594 12.75 18.046875 12.585938 17.902344 12.429688 C 17.867188 12.390625 17.832031 12.347656 17.792969 12.3125 C 17.714844 12.230469 17.632812 12.152344 17.550781 12.074219 C 17.503906 12.03125 17.457031 11.988281 17.40625 11.945312 C 17.320312 11.871094 17.234375 11.796875 17.144531 11.726562 C 17.097656 11.691406 17.054688 11.65625 17.007812 11.625 C 16.695312 11.394531 16.367188 11.191406 16.015625 11.019531 C 15.957031 10.988281 15.898438 10.960938 15.839844 10.933594 C 15.742188 10.886719 15.640625 10.847656 15.539062 10.804688 C 15.464844 10.777344 15.390625 10.75 15.3125 10.722656 C 15.21875 10.691406 15.128906 10.65625 15.03125 10.628906 C 14.871094 10.578125 14.707031 10.535156 14.539062 10.5 C 14.472656 10.488281 14.40625 10.476562 14.339844 10.464844 C 14.210938 10.441406 14.082031 10.421875 13.953125 10.40625 C 13.886719 10.398438 13.820312 10.390625 13.753906 10.386719 C 13.703125 10.378906 13.652344 10.371094 13.601562 10.371094 L 13.601562 5.15625 L 23.199219 5.15625 Z M 23.199219 14.757812"/>
    <path d="M7.601562 6.757812C7.601562 6.976562 7.421875 7.15625 7.199219 7.15625 6.980469 7.15625 6.800781 6.976562 6.800781 6.757812 6.800781 6.535156 6.980469 6.355469 7.199219 6.355469 7.421875 6.355469 7.601562 6.535156 7.601562 6.757812zM8.800781 3.15625C8.800781 3.378906 8.621094 3.558594 8.398438 3.558594 8.179688 3.558594 8 3.378906 8 3.15625 8 2.9375 8.179688 2.757812 8.398438 2.757812 8.621094 2.757812 8.800781 2.9375 8.800781 3.15625zM8.800781 5.558594C8.800781 5.777344 8.621094 5.957031 8.398438 5.957031 8.179688 5.957031 8 5.777344 8 5.558594 8 5.335938 8.179688 5.15625 8.398438 5.15625 8.621094 5.15625 8.800781 5.335938 8.800781 5.558594zM10 6.757812C10 6.976562 9.820312 7.15625 9.601562 7.15625 9.378906 7.15625 9.199219 6.976562 9.199219 6.757812 9.199219 6.535156 9.378906 6.355469 9.601562 6.355469 9.820312 6.355469 10 6.535156 10 6.757812zM7.601562 11.558594C7.601562 11.777344 7.421875 11.957031 7.199219 11.957031 6.980469 11.957031 6.800781 11.777344 6.800781 11.558594 6.800781 11.335938 6.980469 11.15625 7.199219 11.15625 7.421875 11.15625 7.601562 11.335938 7.601562 11.558594zM7.601562 9.15625C7.601562 9.378906 7.421875 9.558594 7.199219 9.558594 6.980469 9.558594 6.800781 9.378906 6.800781 9.15625 6.800781 8.9375 6.980469 8.757812 7.199219 8.757812 7.421875 8.757812 7.601562 8.9375 7.601562 9.15625zM6.398438 7.957031C6.398438 8.175781 6.222656 8.355469 6 8.355469 5.777344 8.355469 5.601562 8.175781 5.601562 7.957031 5.601562 7.734375 5.777344 7.558594 6 7.558594 6.222656 7.558594 6.398438 7.734375 6.398438 7.957031zM5.199219 11.558594C5.199219 11.777344 5.019531 11.957031 4.800781 11.957031 4.578125 11.957031 4.398438 11.777344 4.398438 11.558594 4.398438 11.335938 4.578125 11.15625 4.800781 11.15625 5.019531 11.15625 5.199219 11.335938 5.199219 11.558594zM6.398438 10.355469C6.398438 10.578125 6.222656 10.757812 6 10.757812 5.777344 10.757812 5.601562 10.578125 5.601562 10.355469 5.601562 10.136719 5.777344 9.957031 6 9.957031 6.222656 9.957031 6.398438 10.136719 6.398438 10.355469zM8.800781 7.957031C8.800781 8.175781 8.621094 8.355469 8.398438 8.355469 8.179688 8.355469 8 8.175781 8 7.957031 8 7.734375 8.179688 7.558594 8.398438 7.558594 8.621094 7.558594 8.800781 7.734375 8.800781 7.957031zM8.800781 10.355469C8.800781 10.578125 8.621094 10.757812 8.398438 10.757812 8.179688 10.757812 8 10.578125 8 10.355469 8 10.136719 8.179688 9.957031 8.398438 9.957031 8.621094 9.957031 8.800781 10.136719 8.800781 10.355469zM10 9.15625C10 9.378906 9.820312 9.558594 9.601562 9.558594 9.378906 9.558594 9.199219 9.378906 9.199219 9.15625 9.199219 8.9375 9.378906 8.757812 9.601562 8.757812 9.820312 8.757812 10 8.9375 10 9.15625zM11.199219 7.957031C11.199219 8.175781 11.019531 8.355469 10.800781 8.355469 10.578125 8.355469 10.398438 8.175781 10.398438 7.957031 10.398438 7.734375 10.578125 7.558594 10.800781 7.558594 11.019531 7.558594 11.199219 7.734375 11.199219 7.957031zM11.199219 10.355469C11.199219 10.578125 11.019531 10.757812 10.800781 10.757812 10.578125 10.757812 10.398438 10.578125 10.398438 10.355469 10.398438 10.136719 10.578125 9.957031 10.800781 9.957031 11.019531 9.957031 11.199219 10.136719 11.199219 10.355469zM12.398438 9.15625C12.398438 9.378906 12.222656 9.558594 12 9.558594 11.777344 9.558594 11.601562 9.378906 11.601562 9.15625 11.601562 8.9375 11.777344 8.757812 12 8.757812 12.222656 8.757812 12.398438 8.9375 12.398438 9.15625zM2.800781 13.957031C2.800781 14.175781 2.621094 14.355469 2.398438 14.355469 2.179688 14.355469 2 14.175781 2 13.957031 2 13.734375 2.179688 13.558594 2.398438 13.558594 2.621094 13.558594 2.800781 13.734375 2.800781 13.957031zM4 12.757812C4 12.976562 3.820312 13.15625 3.601562 13.15625 3.378906 13.15625 3.199219 12.976562 3.199219 12.757812 3.199219 12.535156 3.378906 12.355469 3.601562 12.355469 3.820312 12.355469 4 12.535156 4 12.757812zM5.199219 13.957031C5.199219 14.175781 5.019531 14.355469 4.800781 14.355469 4.578125 14.355469 4.398438 14.175781 4.398438 13.957031 4.398438 13.734375 4.578125 13.558594 4.800781 13.558594 5.019531 13.558594 5.199219 13.734375 5.199219 13.957031zM6.398438 12.757812C6.398438 12.976562 6.222656 13.15625 6 13.15625 5.777344 13.15625 5.601562 12.976562 5.601562 12.757812 5.601562 12.535156 5.777344 12.355469 6 12.355469 6.222656 12.355469 6.398438 12.535156 6.398438 12.757812zM6.398438 12.757812"/>
</svg>

<svg xmlns="http://www.w3.org/2000/svg" width="32" height="32" viewBox="0 0 24 24">
    <path d="M23.602 4.355H13.199a.401.401 0 0 0-.398.403v3.25L8.82 1.043a.402.402 0 0 0-.344-.2h-.004a.394.394 0 0 0-.344.2L.055 14.957a.384.384 0 0 0 0 .398c.07.125.203.204.343.204h6.52a6.04 6.04 0 0 0-.09.664.384.384 0 0 0-.027.132c0 .032.008.055.015.082-.003.106-.015.211-.015.32a6.407 6.407 0 0 0 6.398 6.4c3.531 0 6.403-2.872 6.403-6.4 0-.41-.043-.812-.118-1.198h4.118c.218 0 .398-.18.398-.403V4.758a.401.401 0 0 0-.398-.403zM1.094 14.758l2.343-4.04a.39.39 0 0 0 .165.04c.218 0 .398-.18.398-.403a.397.397 0 0 0-.168-.316l.598-1.031a.389.389 0 0 0-.032.148.401.401 0 1 0 .402-.398.39.39 0 0 0-.343.207l1.805-3.11a.397.397 0 0 0 .12-.21l.571-.98a.391.391 0 0 0 .246.093c.223 0 .403-.18.403-.403a.404.404 0 0 0-.258-.37l1.129-1.942L9.57 3.965a.396.396 0 0 0 .032.793.402.402 0 0 0 .32-.176l.5.871c-.012.035-.024.067-.024.106 0 .183.13.332.297.378l2.106 3.684v.75c-.051 0-.102.008-.153.016a6.014 6.014 0 0 0-.586.078c-.066.012-.136.02-.199.035a5.44 5.44 0 0 0-.496.129c-.094.027-.187.062-.277.094l-.23.082c-.102.039-.2.082-.301.129-.059.027-.118.054-.172.086a5.502 5.502 0 0 0-.496.27.376.376 0 0 0-.29-.134.402.402 0 0 0-.402.403c0 .062.02.12.047.175-.086.067-.172.141-.254.211l-.14.13c-.082.077-.168.155-.247.238-.023.023-.043.046-.066.074a.337.337 0 0 0-.14-.032.401.401 0 0 0-.399.403c0 .074.027.14.063.199-.032.043-.063.082-.094.125-.063.09-.121.184-.184.277-.035.055-.07.114-.101.172-.047.078-.094.156-.137.235a.401.401 0 0 0-.348-.207.398.398 0 1 0 0 .797c.028 0 .051-.008.078-.016a7.603 7.603 0 0 0-.152.418zm12.105 7.597a5.605 5.605 0 0 1-5.597-5.597c0-.524.074-1.024.207-1.504.039-.133.082-.266.128-.395.008-.023.02-.05.028-.078.047-.12.098-.242.152-.36.012-.026.028-.054.04-.085.058-.113.116-.23.179-.344.008-.012.016-.023.023-.039.211-.36.457-.691.739-.996.023-.023.043-.047.062-.07.082-.086.168-.164.254-.246l.098-.086c.086-.075.175-.149.265-.223l.098-.07c.098-.075.195-.145.297-.207.02-.016.039-.024.058-.035a5.631 5.631 0 0 1 1.043-.516c.055-.02.106-.04.165-.059.085-.03.18-.054.269-.082.074-.02.152-.039.23-.058.083-.02.16-.035.243-.051.101-.02.203-.031.304-.047.067-.008.13-.02.196-.023a5.71 5.71 0 0 1 .52-.028c.175 0 .35.012.523.028.062.004.129.015.195.023.102.016.203.027.3.047.083.016.165.031.247.05l.23.06.27.081.164.059c.363.137.715.309 1.043.516.02.011.039.02.058.035.102.062.2.133.297.207.032.023.063.047.098.07.09.074.18.148.266.223.03.03.066.058.097.086.086.082.172.16.25.246.024.023.043.047.067.07.28.305.527.637.738.996.008.016.016.027.023.04.063.112.122.226.176.343.016.031.031.059.043.086.055.117.106.238.152.36a4.625 4.625 0 0 1 .152.473c.134.48.212.98.212 1.503a5.606 5.606 0 0 1-5.602 5.597zm10-7.597h-3.922a6.684 6.684 0 0 0-.324-.79l-.066-.136c-.055-.102-.11-.203-.168-.3-.035-.06-.07-.118-.106-.173a4.254 4.254 0 0 0-.183-.277c-.04-.055-.078-.11-.117-.16a6.222 6.222 0 0 0-.41-.492c-.036-.04-.071-.082-.11-.117-.078-.083-.16-.16-.242-.239-.047-.043-.094-.086-.145-.129-.086-.074-.172-.148-.261-.218-.047-.036-.09-.07-.137-.102a6.413 6.413 0 0 0-.992-.605c-.059-.032-.118-.06-.176-.086-.098-.047-.2-.086-.3-.13a14.548 14.548 0 0 0-.227-.081c-.094-.032-.184-.067-.282-.094a5.05 5.05 0 0 0-.492-.129l-.2-.035a6.603 6.603 0 0 0-.386-.059c-.066-.008-.133-.015-.2-.02a1.007 1.007 0 0 0-.151-.015V5.156h9.597zm0 0"/>
    <path d="M7.602 6.758a.401.401 0 1 1-.802-.005.401.401 0 0 1 .802.005zm0 0M8.8 3.156a.401.401 0 1 1 0 0zm0 0M8.8 5.559A.401.401 0 1 1 8 5.554a.401.401 0 0 1 .802.005zm0 0M10 6.758a.4.4 0 1 1-.8-.004.4.4 0 0 1 .8.004zm0 0M7.602 11.559a.401.401 0 1 1-.802-.005.401.401 0 0 1 .802.005zm0 0M7.602 9.156a.401.401 0 1 1 0 0zm0 0M6.398 7.957a.398.398 0 1 1-.796 0c0-.223.175-.398.398-.398.223 0 .398.175.398.398zm0 0M5.2 11.559a.4.4 0 1 1-.801-.004.4.4 0 0 1 .8.004zm0 0M6.398 10.355a.398.398 0 1 1-.796 0 .398.398 0 1 1 .796 0zm0 0M8.8 7.957a.401.401 0 0 1-.8 0c0-.223.18-.398.398-.398.223 0 .403.175.403.398zm0 0M8.8 10.355a.401.401 0 1 1 0 0zm0 0M10 9.156a.401.401 0 1 1-.802.003.401.401 0 0 1 .802-.003zm0 0M11.2 7.957a.4.4 0 0 1-.802 0c0-.223.18-.398.403-.398.219 0 .398.175.398.398zm0 0M11.2 10.355a.401.401 0 1 1-.803.003.401.401 0 0 1 .802-.003zm0 0M12.398 9.156a.398.398 0 1 1-.796 0 .398.398 0 1 1 .796 0zm0 0M2.8 13.957a.401.401 0 0 1-.8 0c0-.223.18-.398.398-.398.223 0 .403.175.403.398zm0 0M4 12.758a.4.4 0 1 1-.8-.004.4.4 0 0 1 .8.004zm0 0M5.2 13.957a.4.4 0 0 1-.802 0c0-.223.18-.398.403-.398.219 0 .398.175.398.398zm0 0M6.398 12.758a.398.398 0 1 1-.796 0 .398.398 0 1 1 .796 0zm0 0"/>
</svg>
